casedrop/img/profile/icons/wallet.svg

<svg width="17" height="17" viewBox="0 0 17 17" fill="none" xmlns="http://www.w3.org/2000/svg">
<path fill-rule="evenodd" clip-rule="evenodd" d="M13.1361 11.8485H16.227V10.8182H13.1361V11.8485ZM15.1967 5.66665H0.772461V15.9697C0.772461 16.5384 1.23404 17 1.80276 17H15.1967C15.7654 17 16.227 16.5384 16.227 15.9697V12.8788H12.6209C12.3366 12.8788 12.1058 12.6485 12.1058 12.3636V10.303C12.1058 10.0186 12.3366 9.78786 12.6209 9.78786H16.227V6.69695C16.227 6.12822 15.7654 5.66665 15.1967 5.66665ZM15.1967 1.03028C15.1967 0.745405 15.0751 0.587763 14.8103 0.483187C14.6063 0.402308 14.408 0.450738 14.1664 0.515132L0.772461 4.63634H15.1967V1.03028Z" fill="white"/>
</svg>

<svg width="17" height="17" fill="none" xmlns="http://www.w3.org/2000/svg"><path fill-rule="evenodd" clip-rule="evenodd" d="M13.136 11.848h3.091v-1.03h-3.09v1.03zm2.06-6.181H.773V15.97c0 .568.462 1.03 1.03 1.03h13.395a1.03 1.03 0 001.03-1.03v-3.091h-3.606a.515.515 0 01-.515-.515v-2.061c0-.284.23-.515.515-.515h3.606V6.697a1.03 1.03 0 00-1.03-1.03zm0-4.637c0-.285-.12-.442-.386-.547-.204-.08-.402-.032-.644.032L.772 4.636h14.425V1.03z" fill="#fff"/></svg>
